icons/issue-reopened-16.svg

<svg width="16" height="16" viewBox="0 0 16 16" fill="none" xmlns="http://www.w3.org/2000/svg">
<path d="M0.426777 1.92724L1.6426 3.14306C3.10409 1.23293 5.40744 0 7.99982 0C12.1391 0 15.5434 3.1431 15.9576 7.17332C15.9999 7.58537 15.7002 7.95372 15.2882 7.99607C14.8761 8.03842 14.5078 7.73872 14.4654 7.32668C14.129 4.05357 11.3622 1.5 7.99982 1.5C5.82279 1.5 3.89462 2.57041 2.71464 4.21511L4.07322 5.57369C4.23071 5.73118 4.11917 6.00046 3.89645 6.00046H0.25C0.111929 6.00046 0 5.88853 0 5.75046V2.10402C0 1.88129 0.269286 1.76975 0.426777 1.92724Z" fill="#24292E"/>
<path d="M1.53421 8.67332C1.49187 8.26128 1.12351 7.96158 0.711468 8.00393C0.299425 8.04628 -0.000273015 8.41463 0.0420744 8.82668C0.456277 12.8569 3.86052 16 7.99982 16C10.5922 16 12.8955 14.7671 14.357 12.857L15.5732 14.0732C15.7307 14.2307 16 14.1192 16 13.8964V10.25C16 10.1119 15.888 10 15.75 10C14.5345 10 13.3191 10 12.1035 10C11.8808 10 11.7693 10.2693 11.9268 10.4268L13.2849 11.785C12.105 13.4296 10.1768 14.5 7.99982 14.5C4.63748 14.5 1.87061 11.9464 1.53421 8.67332Z" fill="#24292E"/>
<path d="M8 9.5C8.82843 9.5 9.5 8.82843 9.5 8C9.5 7.17157 8.82843 6.5 8 6.5C7.17157 6.5 6.5 7.17157 6.5 8C6.5 8.82843 7.17157 9.5 8 9.5Z" fill="#24292E"/>
</svg>

<svg xmlns="http://www.w3.org/2000/svg" width="16" height="16" viewBox="0 0 16 16"><path d="M.427 1.927l1.216 1.216a8.001 8.001 0 0114.315 4.03.75.75 0 01-1.493.154 6.5 6.5 0 00-11.75-3.112l1.358 1.359A.25.25 0 013.896 6H.25A.25.25 0 010 5.75V2.104a.25.25 0 01.427-.177zm1.107 6.746a.75.75 0 10-1.492.154 8.001 8.001 0 0014.315 4.03l1.216 1.216a.25.25 0 00.427-.177V10.25a.25.25 0 00-.25-.25h-3.646a.25.25 0 00-.177.427l1.358 1.358a6.501 6.501 0 01-11.75-3.112z"/><path d="M8 9.5a1.5 1.5 0 100-3 1.5 1.5 0 000 3z"/></svg>
